source/img/icon-report.svg

<svg width="20" height="20" viewBox="0 0 20 20" fill="none" xmlns="http://www.w3.org/2000/svg">
<g id="a/icon_report">
<rect id="Mask" opacity="0.01" width="20" height="20" fill="#ECF1F8"/>
<mask id="mask0" mask-type="alpha" maskUnits="userSpaceOnUse" x="0" y="0" width="20" height="20">
<rect id="Mask_2" width="20" height="20" fill="white"/>
</mask>
<g mask="url(#mask0)">
<g id="edit icon">
<g id="delete copy">
<rect id="Rectangle 3 Copy" opacity="0.01" width="20" height="20" fill="#C3CADF"/>
<path id="Rectangle" d="M4 17C2.89543 17 2 16.1046 2 15V3C2 1.89543 2.89543 1 4 1H14C15.1046 1 16 1.89543 16 3V4" stroke="#3E4056" stroke-width="2"/>
<rect id="Rectangle 2" x="5" y="4" width="8" height="2" rx="1" fill="#3E4056"/>
<path id="Rectangle 2 Copy" fill-rule="evenodd" clip-rule="evenodd" d="M5 9C5 8.44772 5.44772 8 6 8H10L8 10H6C5.44772 10 5 9.55228 5 9Z" fill="#3E4056"/>
<path id="Combined Shape" fill-rule="evenodd" clip-rule="evenodd" d="M13.8933 6.92764C14.6743 6.14659 15.9407 6.14659 16.7217 6.92764L19.5501 9.75607C20.3312 10.5371 20.3312 11.8034 19.5501 12.5845L12.6064 19.5282C12.5241 19.6105 12.4156 19.6615 12.2997 19.6724L8.58474 20.0219C7.32474 20.1405 6.27281 19.0737 6.40902 17.8155L6.80325 14.1739C6.81552 14.0605 6.86617 13.9548 6.94679 13.8741L13.8933 6.92764ZM14.6004 9.04896C14.9909 8.65844 15.6241 8.65844 16.0146 9.04896L17.4288 10.4632C17.8193 10.8537 17.8193 11.4869 17.4288 11.8774L16.7217 12.5845L13.8933 9.75607L14.6004 9.04896ZM12.4791 11.1703L8.94404 14.7053L8.53083 16.7702C8.39079 17.47 9.00782 18.087 9.70762 17.9469L11.7725 17.5337L15.3075 13.9987L12.4791 11.1703Z" fill="#3E4056"/>
</g>
</g>
</g>
</g>
</svg>

<svg width="20" height="20" fill="none" xmlns="http://www.w3.org/2000/svg"><g id="a/icon_report"><path id="Mask" opacity=".01" fill="#ECF1F8" d="M0 0h20v20H0z"/><mask id="mask0" maskUnits="userSpaceOnUse" x="0" y="0" width="20" height="20"><path id="Mask_2" fill="#fff" d="M0 0h20v20H0z"/></mask><g mask="url(#mask0)"><g id="edit icon"><g id="delete copy"><path id="Rectangle 3 Copy" opacity=".01" fill="#C3CADF" d="M0 0h20v20H0z"/><path id="Rectangle" d="M4 17a2 2 0 01-2-2V3a2 2 0 012-2h10a2 2 0 012 2v1" stroke="#3E4056" stroke-width="2"/><rect id="Rectangle 2" x="5" y="4" width="8" height="2" rx="1" fill="#3E4056"/><path id="Rectangle 2 Copy" fill-rule="evenodd" clip-rule="evenodd" d="M5 9a1 1 0 011-1h4l-2 2H6a1 1 0 01-1-1z" fill="#3E4056"/><path id="Combined Shape" fill-rule="evenodd" clip-rule="evenodd" d="M13.893 6.928a2 2 0 012.829 0l2.828 2.828a2 2 0 010 2.829l-6.944 6.943a.5.5 0 01-.306.144l-3.715.35a2 2 0 01-2.176-2.206l.394-3.642a.5.5 0 01.144-.3l6.946-6.946zm.707 2.121a1 1 0 011.415 0l1.414 1.414a1 1 0 010 1.414l-.707.707-2.829-2.828.707-.707zm-2.12 2.121l-3.536 3.535-.413 2.065a1 1 0 001.177 1.177l2.065-.413 3.534-3.535-2.828-2.829z" fill="#3E4056"/></g></g></g></g></svg>
